X:1
T:Title
L:1/8
M:2/2
I:linebreak $
K:D
V:1 treble nm="Voice" snm="Voice"
V:1
 fg | afaf d2 ef |"A" gfge c2 [Fe]2 | gfed cABc | defg a2 fg |$ afaf d2 ef | gfge c2 [Fe]2 | %7
 gfed cABc | dfec d2 ::$ AG | FAdA FAdA | GBdB GBdB | ABcd efec | defg a2 A2 |$ FAdA FAdA | %15
 GBdB GBdB | ABcd efec | d2 f2 d2 :| %18
